X: 7507
T: Coast Of France, The
R: hornpipe
M: 4/4
K: Dmajor
|:AG|FAdf GBdg|Acea dfad'|^abge ^g=afd|^efcA g=ecA|
FAdf GBdg|Acea d'DFA|Gbag fd (3ceA|d2f2 d2:|
|:fd|dcB^A Bcde|fedc B2ed|cBA^G ABcd|eEF^G A2ab|
=c'bag gfed|dGBd b2ag|fdAf eAce|d^GBA d2:|

